X:182
T: Die Mordeltern
N: Q0085X
O: Mitteleuropa, Deutschland (BRD) , Schleswig Holstein, Ostholstein
R: Ballade, Habgier, Mord, Reue, Selbstmord
M: 3/4
L: 1/16
K: G
D2G2D2 | B,4G4G3G | F4z2
D2D2F2 | A4A2G2F2E2 | D3E
D2C2B,2C2 | D4D4E3F | G4z2
G2G2A2 | B4B4A3F | G4z2

